svgs/sharp-light/cross.svg

<svg xmlns="http://www.w3.org/2000/svg" viewBox="0 0 384 512"><!--! Font Awesome Pro 6.6.0 by @fontawesome - https://fontawesome.com License - https://fontawesome.com/license (Commercial License) Copyright 2024 Fonticons, Inc. --><path d="M128 0l16 0 96 0 16 0 0 16 0 112 112 0 16 0 0 16 0 96 0 16-16 0-112 0 0 240 0 16-16 0-96 0-16 0 0-16 0-240L16 256 0 256l0-16 0-96 0-16 16 0 112 0 0-112 0-16zm32 32l0 112 0 16-16 0L32 160l0 64 112 0 16 0 0 16 0 240 64 0 0-240 0-16 16 0 112 0 0-64-112 0-16 0 0-16 0-112-64 0z"/></svg>

<svg xmlns="http://www.w3.org/2000/svg" viewBox="0 0 384 512"><!--! Font Awesome Pro 6.4.2 by @fontawesome - https://fontawesome.com License - https://fontawesome.com/license (Commercial License) Copyright 2023 Fonticons, Inc. --><path d="M128 0h16 96 16V16 128H368h16v16 96 16H368 256V496v16H240 144 128V496 256H16 0V240 144 128H16 128V16 0zm32 32V144v16H144 32v64H144h16v16V480h64V240 224h16H352V160H240 224V144 32H160z"/></svg>
